public/star.svg

<svg width="24" height="24" viewBox="0 0 24 24" fill="none" xmlns="http://www.w3.org/2000/svg">
<path d="M21.2841 8.27584L15.3333 7.411L12.6731 2.01803C12.6005 1.87037 12.4809 1.75084 12.3333 1.67818C11.963 1.49537 11.513 1.64771 11.3278 2.01803L8.66766 7.411L2.71688 8.27584C2.55282 8.29928 2.40281 8.37662 2.28797 8.49381C2.14913 8.63651 2.07262 8.8285 2.07526 9.02758C2.0779 9.22666 2.15946 9.41655 2.30203 9.55553L6.6075 13.7532L5.59031 19.6805C5.56646 19.8184 5.58172 19.9602 5.63436 20.0899C5.687 20.2195 5.77491 20.3318 5.88813 20.4141C6.00135 20.4963 6.13535 20.5452 6.27492 20.5551C6.4145 20.5651 6.55407 20.5357 6.67781 20.4704L12.0005 17.6719L17.3231 20.4704C17.4684 20.5477 17.6372 20.5735 17.7989 20.5454C18.2067 20.4751 18.4809 20.0883 18.4106 19.6805L17.3934 13.7532L21.6989 9.55553C21.8161 9.44068 21.8934 9.29068 21.9169 9.12662C21.9802 8.71646 21.6942 8.33678 21.2841 8.27584V8.27584Z" fill="#FEC601"/>
</svg>

<svg width="24" height="24" fill="none" xmlns="http://www.w3.org/2000/svg"><path d="m21.284 8.276-5.95-.865-2.66-5.393a.753.753 0 0 0-1.345 0L8.667 7.411l-5.951.865a.749.749 0 0 0-.415 1.28l4.305 4.197L5.59 19.68a.75.75 0 0 0 1.088.79L12 17.672l5.322 2.798a.749.749 0 0 0 1.087-.79l-1.017-5.927L21.7 9.556a.749.749 0 0 0 .218-.43.747.747 0 0 0-.633-.85Z" fill="#FEC601"/></svg>
